!!!!SEGMENT: pl-kk--kk-i-389--002-003_anonim--missa-no-2-gloria.krn
!!!cenid: 17xx:2462
!!!COM: Anonim
!!!COM-rismID: pe30004985
!!!CDT:
!!!CNT:
!!!OPR: [Missa] No. 2.
!!!OTL: Gloria
!!!OMV: 003
!!!PDT:
!!!AGN: Sacred; Mass
!!!YEC: Copyright 2022 Narodowy Instytut Fryderyka Chopina (https://polishscores.org)
!!!YEM: License CC-BY-4.0 (https://creativecommons.org/licenses/by/4.0)
!!!SMS-siglum: PL-Kk
!!!SMS-shelfmark: Kk.I.389
!!!SMS-variant:
!!!SMS-altvar:
!!!SMS-shelfwork: 002-003 M
!!!NIFC-rismSourceID: 1001146182
!!!NIFC-rismChildID: 1001146223
!!!NIFC-islandoraID: pl-kk:6976
!!!URL-pdf-islandora: https://repozytorium.nifc.pl/islandora/object/pl-kk%3A6976/datastream/PDF/view
!!!URL-scan: https://polish.musicsources.pl/pl/lokalizacje/galeria/rekopisy/5999/1 @EN{Scan on Polish Music Sources Website} @PL{Skany w portalu Dziedzictwo Muzyki Polskiej w otwartym dostępie}
!!!IIIF:
!!!ONB-nifc: UWAGA: S – skan 4-5, A – 23-24, T – 42-43 , B – 61-62. Części Mszy: Rorate, Kyrie, Gloria, Graduale, Sanctus, Benedictus, Agnus.
!!!OMD:
!!!AIN: 1 alto 1 bass 1 soprn 1 tenor
!!!key: F
**kern	**text	**kern	**text	**kern	**text	**kern	**text
*part4	*part4	*part3	*part3	*part2	*part2	*part1	*part1
*staff4	*staff4	*staff3	*staff3	*staff2	*staff2	*staff1	*staff1
*ICvox	*	*ICvox	*	*ICvox	*	*ICvox	*
*Ibass	*	*Itenor	*	*Ialto	*	*Isoprn	*
*I"Basso.	*	*I"Tenore.	*	*I"Alto.	*	*I"Soprano.	*
*I'B	*	*I'T	*	*I'A	*	*I'S	*
*clefF4	*	*clefC4	*	*clefC3	*	*clefC1	*
*k[b-]	*	*k[b-]	*	*k[b-]	*	*k[b-]	*
*F:	*	*F:	*	*F:	*	*F:	*
*M3/2	*	*M3/2	*	*M3/2	*	*M3/2	*
=1	=1	=1	=1	=1	=1	=1	=1
*4\right	*	*4\right	*	*4\right	*	*4\right	*
4F\	Et	4c\	Et	4f\	Et	4a\	Et
4G\	in	4B-\	in	4e\	in	4b-\	in
4A\	ter-	4A\	te-	4f\	ter-	4cc\	ter-
4B-\	-ra	4B-\	-ra	4e\	-ra	4dd\	-ra
4A\	pax	4F/	pax	4f\	pax	4cc\	pax
4G\	ho-	4G/	ho-	4e\	ho-	4b-\	ho-
=2	=2	=2	=2	=2	=2	=2	=2
*2\right	*	*2\right	*	*2\right	*	*2\right	*
2.F\	-mi-	2.A\	-mi-	2.f\	-mi-	2.a\	-mi-
4F\	-ni-	4c\	-ni-	4f\	-ni-	4a\	-ni-
2F\	-bus	2c\	-bus	2f\	-bus	2a\	-bus,
=3	=3	=3	=3	=3	=3	=3	=3
2F\	bo-	2A\	bo-	4f\	bo-	4a\	bo-
.	.	.	.	4e\	-ne	4g\	-ne
2F\	-ne	2A\	-ne	4d\	vo-	4f/	vo-
.	.	.	.	4e\	.	4g/	-lun-
4F\	vo-	4A\	vo-	4d\	.	4f/	-to
4F#X\	-lun-	4A\	-lun-	4c\	-lun-	4e/	.
=4	=4	=4	=4	=4	=4	=4	=4
2G\	-ta-	2Bn\	-ta-	2c\	-ta-	2e/	ta-
2G\	-tis	2G\	-tis,	2Bn/	-tis	2d/	-tis,
2G\	Lau-	4B\	Lau-	4d\	Lau-	2g\	Lau-
.	.	4c\	.	4e\	.	.	.
=5	=5	=5	=5	=5	=5	=5	=5
4G\	-da-	4Bn\	-da-	1f	-da-	1g	-da-
4A\	.	4c\	.	.	.	.	.
4Bn\	.	4d\	.	.	.	.	.
4A\	.	4c\	.	.	.	.	.
4B\	.	4d\	.	2f\	-mus	2g\	-mus
4G\	-mus	4B\	-mus	.	.	.	.
!LO:LB:g=original	!	!LO:LB:g=original	!	!	!	!LO:LB:g=original	!
=6	=6	=6	=6	=6	=6	=6	=6
2c\	te,	2c\	te,	2e\	te,	2g\	te,
!	!	!	!	!LO:LB:g=original	!	!	!
=-	=-	=-	=-	=-	=-	=-	=-
2G\	be-	2Bn\	be-	4d\	be-	2dd\	be-
.	.	.	.	4f\	.	.	.
2G\	-ne-	2B\	-ne-	4e\	-ne-	2cc\	-ne-
.	.	.	.	4g\	.	.	.
=7	=7	=7	=7	=7	=7	=7	=7
4G\	-di-	4Bn\	-di-	2.f\	-di-	2.g\	-di-
4A\	.	4c\	.	.	.	.	.
4Bn\	-ci-	4d\	.	.	.	.	.
4A\	.	4c\	.	4f\	-ci-	4g\	-ci-
4B\	-mus	4d\	-ci-	2f\	-mus	2g\	-mus
4G\	.	4B\	-mus	.	.	.	.
=8	=8	=8	=8	=8	=8	=8	=8
2c\	te,	2c\	te,	2e\	te,	2g\	te,
2C/	a-	2c\	a-	2e\	a-	2g\	a-
2D/	-do-	2G/	-do-	2f\	-do-	2bn\	-do-
=9	=9	=9	=9	=9	=9	=9	=9
2.E\	-ra-	2.G/	-ra-	2.g\	-ra-	2.cc\	-ra-
4D\	-mus	4G/	-mus	4f\	-mus	4b-\	-mus
2C/	te,	2c\	te	2e\	te,	2g\	te,
=10	=10	=10	=10	=10	=10	=10	=10
2GG/	glo-	2Bn\	glo-	2d\	glo-	2bn\	glo-
2G\	-ri-	2G/	-ri-	2e\	-ri-	2cc\	-ri-
2G\	-fi-	2B\	-fi-	2f\	-fi-	2dd\	-fi-
=11	=11	=11	=11	=11	=11	=11	=11
2C/	-ca-	2e\	-ca-	4e\	-ca-	4cc\	-ca-
.	.	.	.	4g\	.	4ee\	.
2D/	.	2d\	.	4f\	.	4dd\	.
.	.	.	.	4a\	.	4ff\	.
2E\	.	2c\	.	2g\	.	2ee\	-mus
!	!	!	!	!	!	!LO:LB:g=original	!
=12	=12	=12	=12	=12	=12	=12	=12
.	.	.	.	.	.	8qgg/	.
2F\	.	2A\	.	4a\	.	4ff\	glo-
*	*	*	*	*8\right	*	*8\right	*
.	.	.	.	8g\L	.	8ee\L	-ri-
.	.	.	.	8f\J	.	8dd\J	-fi-
2G\	.	2G/	.	2e\	.	2cc\	-ca-
2GG/	-mus	2G/	-mus	2d\	-mus	2bn\	-mus
!LO:LB:g=original	!	!LO:LB:g=original	!	!LO:LB:g=original	!	!	!
=13	=13	=13	=13	=13	=13	=13	=13
1C	te	1G	te,	1e	te,	1cc	te,
2r	.	2r	.	2r	.	2r	.
=14	=14	=14	=14	=14	=14	=14	=14
2.C/	Gra-	2.c\	gra-	2.e\	Gra-	2.g\	Gra-
4C/	-ti-	4c\	-ti-	4e\	-ti-	4g\	-ti-
2C/	-as	2c\	-as	2e\	-as	2g\	-as
=15	=15	=15	=15	=15	=15	=15	=15
2.c\	a-	2.e-X\	a-	2.f#X\	a-	2.a\	a-
4c\	-gi-	4e-\	-gi-	4f#\	-gi-	4a\	-gi-
2c\	-mus	2e-\	-mus	2f#\	-mus	2a\	-mus
=16	=16	=16	=16	=16	=16	=16	=16
4B-X\	ti-	2d\	ti-	2g\	ti-	2b-\	ti-
4A\	.	.	.	.	.	.	.
2G\	-bi	2d\	-bi	2g\	-bi	2b-\	-bi
2r	.	2r	.	2r	.	2r	.
=17	=17	=17	=17	=17	=17	=17	=17
1B-	pro-	1G	pro-	1en	pro-	1cc	pro-
2B-\	-pter	2G/	-pter	2e\	-pter	2cc\	-pter
=18	=18	=18	=18	=18	=18	=18	=18
1B-	ma-	1G	ma-	1e	ma-	1cc	ma-
2B-\	-gnam	2G/	-gnam	2e\	-gnam	2cc\	-gnam
!	!	!	!	!	!	!LO:LB:g=original	!
=19	=19	=19	=19	=19	=19	=19	=19
2.A\	glo-	2.A\	glo-	2.f\	glo-	2.cc\	glo-
4G\	-ri-	4B-\	-ri-	4g\	-ri-	4b-\	-ri-
2F\	-am	2c\	-am	2a\	-am	2a\	-am
=20	=20	=20	=20	=20	=20	=20	=20
2c\	tu-	2c\	tu-	2a\	tu-	2ff\	tu-
2C/	-am,	2c\	-am	2g\	-am,	2ee\	-am,
2r	.	2r	.	2r	.	2r	.
!LO:LB:g=original	!	!	!	!LO:LB:g=original	!	!	!
=21	=21	=21	=21	=21	=21	=21	=21
2C/	Do-	2B-\	Do-	4g\	Do-	4ee\	Do-
.	.	.	.	4f\	.	4dd\	.
!	!	!LO:LB:g=original	!	!	!	!	!
=-	=-	=-	=-	=-	=-	=-	=-
2E\	-mi-	2G/	-mi-	4e\	.	4cc\	.
.	.	.	.	4d\	.	4b-\	.
2C/	-ne	2B-\	-ne	4c/	-mi-	4a\	-mi-
.	.	.	.	4B-/	-ne	4g\	-ne
=22	=22	=22	=22	=22	=22	=22	=22
4F\	De-	4c\	De-	4A/	De-	4f\	De-
4C\	.	4B-\	.	4B-/	.	4g\	.
2F\	-us	2A\	-us	2c\	-us	2a\	-us
4F\	Rex	4c\	Rex	4c\	Rex	4a\	Rex
4A\	ce-	4c\	ce-	4f\	ce-	4a\	ce-
=23	=23	=23	=23	=23	=23	=23	=23
2c\	-les-	2c\	-les-	2f\	-les-	2a\	-les-
2C/	-tis	2c\	-tis	2e\	-tis	2g\	-tis
4E/	De-	4c\	De-	4g\	De-	4b-\	De-
4C/	-us	4c\	-us	4e\	-us	4g\	-us
=24	=24	=24	=24	=24	=24	=24	=24
4F\	Pa-	4A\	Pa-	4a\	Pa-	4cc\	Pa-
4G\	.	4B-\	.	4g\	.	4b-\	.
!	!	!	!	!	!	!LO:LB:g=original	!
=-	=-	=-	=-	=-	=-	=-	=-
4A\	-ter	4c\	-ter	4f\	-ter	4a\	-ter
4B-\	om-	4d\	om-	4g\	om-	4b-\	om-
4c\	-ni-	4c\	-ni-	4f\	-ni-	4a\	-ni-
4C/	-po-	4B-\	-po-	4e\	-po-	4g\	-po-
=25	=25	=25	=25	=25	=25	=25	=25
2F\	-tens.	2A\	-tens	2f\	-tens	2a\	-tens
2r	.	4B-\	Do-	2f\	Do-	2dd\	Do-
.	.	4c\	.	.	.	.	.
2r	.	4d\	-mi-	4f\	-mi-	4dd\	-mi-
.	.	4e-X\	-ne	4f\	-ne	4dd\	-ne
!	!	!	!	!LO:LB:g=original	!	!	!
=26	=26	=26	=26	=26	=26	=26	=26
!LO:TX:a:t=4.	!	!	!	!	!	!	!
00.r	.	2f\	fi-	2d\	Fi-	2b-\	Fi-
.	.	2F/	-li	2c\	-li	2a\	-li
.	.	4A/	u-	4e-X\	u-	4cc\	u-
.	.	4F/	-ni-	4e-\	-ni-	4cc\	-ni
=27	=27	=27	=27	=27	=27	=27	=27
.	.	4F/	-ge-	4e-X\	-ge-	4cc\	ge-
.	.	4F/	-ni-	4d\	-ni-	4b-\	-ni-
.	.	2F/	-te	2d\	-te	2b-\	-te
!	!	!LO:LB:g=original	!	!	!	!	!
=-	=-	=-	=-	=-	=-	=-	=-
.	.	2B-\	Je-	2f\	Je-	2dd\	Je-
=28	=28	=28	=28	=28	=28	=28	=28
.	.	[y1E-X	.	4b-\	.	4gg\	.
.	.	.	.	4a\	.	4ff\	.
.	.	.	.	4g\	.	4ee-X\	.
.	.	.	.	4f\	.	4dd\	.
!	!	!LO:N:xstem:cue	!	!	!	!	!
.	.	4E-]	.	4e-X\	.	4cc\	.
.	.	4En/	-su	4d\	-su	4b-\	-su
=29	=29	=29	=29	=29	=29	=29	=29
.	.	2F/	Chri-	2d\	Chri-	2b-\	Chri-
.	.	2F/	-ste,	2c\	-ste,	2a\	-ste
.	.	2r	.	2r	.	2r	.
!	!	!	!	!	!	!LO:LB:g=original	!
=30	=30	=30	=30	=30	=30	=30	=30
2.F#X\	Do-	2.A\	Do-	2.e-X\	Do-	2.cc\	Do-
4F#\	-mi-	4A\	-mi-	4e-\	-mi-	4cc\	-mi-
2F#\	-ne	2A\	-ne	2e-\	-ne	2cc\	-ne
!LO:LB:g=original	!	!	!	!	!	!	!
=31	=31	=31	=31	=31	=31	=31	=31
4G\	De-	2G/	De-	2d\	De-	4b-\	De-
4A\	.	.	.	.	.	4cc\	.
4B-\	.	2d\	.	2g\	.	4dd\	.
4A\	.	.	.	.	.	4cc\	.
4B-\	.	2d\	-us	2g\	-us	4dd\	.
4G\	-us	.	.	.	.	4b-\	-us
=32	=32	=32	=32	=32	=32	=32	=32
1E	A-	1c	A-	1g	A-	1cc	A-
2E\	-gnus	2c\	-gnus	2g\	-gnus	2cc\	-gnus
!	!	!	!	!LO:LB:g=original	!	!	!
=33	=33	=33	=33	=33	=33	=33	=33
4F\	De-	1c	De-	1a	De-	1cc	De-
4G\	.	.	.	.	.	.	.
4A\	.	.	.	.	.	.	.
4G\	.	.	.	.	.	.	.
4A\	.	2c\	-i	2a\	-i	2cc\	-i
4F\	-i	.	.	.	.	.	.
=34	=34	=34	=34	=34	=34	=34	=34
!	!	!	!	!LO:TX:a:t=1.	!	!LO:TX:a:t=1.	!
4B-\	Fi-	4d\	Fi-	1.r	.	1.r	.
4A\	.	4c\	.	.	.	.	.
4G\	.	4B-\	.	.	.	.	.
4F\	.	4A\	.	.	.	.	.
4E\	-li-	4G/	.	.	.	.	.
4D\	-us	4F/	.	.	.	.	.
=35	=35	=35	=35	=35	=35	=35	=35
2C/	Fi-	2E/	.	2.g\	Fi-	2.cc\	Fi-
4D\	.	4F/	.	.	.	.	.
4E\	-li-	4G/	-li-	4g\	-li-	4cc\	-li-
2F\	-us	2A\	-us	2f\	-us	2cc\	-us
!	!	!LO:LB:g=original	!	!	!	!	!
=36	=36	=36	=36	=36	=36	=36	=36
2BB-/	Pa-	2B-\	Pa-	2g\	Pa-	2dd\	Pa-
1C	.	2A\	.	2f\	.	1cc	.
.	.	2G/	.	2e\	.	.	.
!LO:LB:g=original	!	!	!	!	!	!	!
=37	=37	=37	=37	=37	=37	=37	=37
1F	-tris,	1A	-tris.	2f\	-tris,	2cc\	-tris.
.	.	.	.	2r	.	2r	.
2r	.	2r	.	2d\	qui	2r	.
!	!	!	!	!	!	!LO:LB:g=original	!
=38	=38	=38	=38	=38	=38	=38	=38
!LO:TX:a:t=2	!	!LO:TX:a:t=1.	!	!	!	!	!
0.r	.	1.r	.	2a\	tol-	2r	.
.	.	.	.	2a\	-lis	2r	.
.	.	.	.	2g\	pec-	2e/	qui
=39	=39	=39	=39	=39	=39	=39	=39
.	.	2r	.	2f\	-ca-	2a\	tol-
.	.	2r	.	2f\	-ta	2a\	-lis
.	.	2A\	Qui	2e\	pec-	2g\	pec-
=40	=40	=40	=40	=40	=40	=40	=40
2r	.	2A\	tol-	2d\	-ca-	2f/	-ca-
2r	.	2A\	-lis	2d\	-ta	2f/	-ta
2AA/	Qui	2G/	pec-	2c#X\	pe-	2e/	pec-
!	!	!	!	!LO:LB:g=original	!	!	!
=41	=41	=41	=41	=41	=41	=41	=41
2A\	tol-	2F/	-ca-	1d	-ca-	2d/	-ca-
2A\	-lis	2F/	-ta	.	.	2d/	-ta
2G\	pec-	2E/	pec-	2a\	-ta	2e/	pec-
=42	=42	=42	=42	=42	=42	=42	=42
2F\	-ca-	2D/	-ca-	2a\	pec-	2f/	-ca-
2E\	.	2E/	.	2g\	-ca-	2g/	.
2D\	-ta	2F/	-ta	2f\	-ta	2a/	-ta
=43	=43	=43	=43	=43	=43	=43	=43
2C#X/	mun-	2G/	mun-	2e\	mun-	2b-\	mun-
2D/	-di	2F/	-di	2f\	-di	2a\	-di
2r	.	2r	.	2r	.	2r	.
=44	=44	=44	=44	=44	=44	=44	=44
1F	mi-	1c	mi-	2c\	mi-	1a	mi-
.	.	.	.	2f\	.	.	.
2F\	-se-	2F/	-se-	2d\	-se-	2b-\	-se-
!	!	!LO:LB:g=original	!	!	!	!LO:LB:g=original	!
=45	=45	=45	=45	=45	=45	=45	=45
2F\	-re-	2F/	-re-	2c/	-re-	2a\	-re-
2E\	.	2G/	.	2B-/	.	2g\	.
2F\	-re	2c\	-re	2A/	-re	2f/	-re
=46	=46	=46	=46	=46	=46	=46	=46
2C/	no-	1.c	no-	1B-	no-	1g	no-
!LO:LB:g=original	!	!	!	!	!	!	!
=-	=-	=-	=-	=-	=-	=-	=-
2E\	.	.	.	.	.	.	.
2F\	.	.	.	2A/	.	2f/	.
=47	=47	=47	=47	=47	=47	=47	=47
1C	-bis,	1c	-bis,	1G	-bis	1e	-bis,
2C/	qui	2c\	qui	2B-/	qui	2g\	qui
=48	=48	=48	=48	=48	=48	=48	=48
2F\	tol-	2c\	tol-	2B-/	tol-	2g/	tol-
2F\	-lis	2c\	-lis	2A/	-lis	2f/	-lis
2E\	pe-	2c\	pec-	2c/	pec-	2g/	pec-
=49	=49	=49	=49	=49	=49	=49	=49
2F\	-ca-	2c\	-ca-	2f\	-ca-	2a\	-ca-
!	!	!	!	!LO:LB:g=original	!	!	!
=-	=-	=-	=-	=-	=-	=-	=-
.	.	.	.	8qa/	.	8qcc/	.
2C/	.	2B-\	.	4g\	.	4b-\	.
.	.	.	.	8f\L	.	8a\L	.
.	.	.	.	8g\J	.	8b-\J	.
2F\	-ta	2A\	-ta	2a\	-ta	2cc\	-ta
=50	=50	=50	=50	=50	=50	=50	=50
2c\	mun-	2E/	mun-	1g	mun-	1b-	mun-
2E\	.	2G/	.	.	.	.	.
.	.	.	.	8qg/	.	8qb-/	.
2F\	.	2F/	.	4f\	.	4a\	.
.	.	.	.	8e\L	.	8g\L	.
.	.	.	.	8f\J	.	8a\J	.
=51	=51	=51	=51	=51	=51	=51	=51
1C	-di	1c	-di	1e	-di	1g	-di,
2r	.	2r	.	2r	.	2r	.
!	!	!	!	!	!	!LO:LB:g=original	!
=52	=52	=52	=52	=52	=52	=52	=52
4C/	su-	2c\	sus-	4e\	su-	2g\	sus-
4D/	.	.	.	4f\	.	.	.
4E\	-sci-	4c\	-ci-	4g\	-sci-	4b-\	-ci-
4D\	-pe	4c\	-pe	4f\	-pe	4b-\	-pe
4E\	de-	4c\	de-	4g\	de-	4b-\	de-
4C/	-pre-	4c\	-pre-	4e\	-pre-	4b-\	-pre-
!LO:LB:g=original	!	!LO:LB:g=original	!	!	!	!	!
=53	=53	=53	=53	=53	=53	=53	=53
2F\	-ca-	2c\	-ca-	2f\	-ca-	2a\	-ca-
2C/	.	2B-\	.	2g\	.	2b-\	.
2AA/	-ti-	2F/	-ti-	2a\	-ti-	2cc\	-ti-
=54	=54	=54	=54	=54	=54	=54	=54
4BB-/	-o-	2d\	-o-	2g\	-o-	4b-\	-o-
4BB-/	-nem	.	.	.	.	4b-\	-nem
1C	no-	1c	-nem	2f\	-nem	2a\	no-
.	.	.	.	2e\	no-	2g\	.
=55	=55	=55	=55	=55	=55	=55	=55
1F	-stram	1c	no-	1f	-stram	1a	-stram
2C/	qui	2e\	-stram qui	2g\	qui	2b-\	qui
=56	=56	=56	=56	=56	=56	=56	=56
4F\	se-	2c\	se-	2f\	se-	2a\	se-
4c\	.	.	.	.	.	.	.
!	!	!	!	!LO:LB:g=original	!	!	!
=-	=-	=-	=-	=-	=-	=-	=-
4A\	-des	4c\	-des	4f\	-des	4a\	-des
4F\	ad	4c\	ad	4a\	ad	4cc\	ad
4E\	dex-	4c\	dex-	4g\	dex-	4b-\	dex-
*8\right	*	*8\right	*	*	*	*	*
8F\	-te-	8c\	-te-	8f\	-te-	8a\	-te-
8F\	-ram	8c\	-ram	8f\	-ram	8a\	-ram
=57	=57	=57	=57	=57	=57	=57	=57
2C/	Pa-	2c\	Pa-	2f\	Pa-	2a\	Pa-
2C/	-tris	2c\	-tris	2e\	-tris	2g\	-tris,
2r	.	2r	.	2r	.	2r	.
!	!	!	!	!	!	!LO:LB:g=original	!
=58	=58	=58	=58	=58	=58	=58	=58
1C#X	mi-	1G	mi-	1e	mi-	1b-	mi-
2C#/	-se-	2G/	-se-	2e\	-se-	2b-\	-se-
=59	=59	=59	=59	=59	=59	=59	=59
2D\	-re-	2F/	-re-	2f\	-re-	2a\	-re-
2E\	.	2G/	.	2g\	.	2cc#X\	.
2F\	-re	2A\	-re	2f\	-re	2dd\	-re
!LO:LB:g=original	!	!LO:LB:g=original	!	!	!	!	!
=60	=60	=60	=60	=60	=60	=60	=60
2G\	no-	2B-\	no-	2g\	no-	2ee\	no-
2A\	.	1A	.	2f\	.	2dd\	.
2AA/	.	.	.	2e\	.	2cc#X\	.
=61	=61	=61	=61	=61	=61	=61	=61
1D	-bis,	1A	-bis	1f	-bis,	1dd	-bis
2r	.	2r	.	2r	.	2r	.
=62||	=62||	=62||	=62||	=62||	=62||	=62||	=62||
4F\	Quo-	4A\	Quo-	4a\	Quo-	4ccn\	Quo-
4G\	-ni-	4B-\	-ni-	4g\	-ni-	4b-X\	-ni-
4A\	-am	4c\	-am	4f\	-am	4a\	-am
4B-\	tu	4d\	tu	4g\	tu	4b-\	tu
4c\	so-	4A\	so-	4a\	so-	4cc\	so-
4B-\	-lus	4B-\	-lus	4g\	-lus	4b-\	-lus
!	!	!	!	!LO:LB:g=original	!	!	!
=63	=63	=63	=63	=63	=63	=63	=63
2A\	san-	2c\	ſan-	2f\	san-	4a\	san-
.	.	.	.	.	.	4g\	.
4A\	-ctus	4c\	-ctus	4f\	-ctus	4f\	-ctus,
4F\	tu	4c\	tu	4a\	tu	4cc\	tu
4E\	so-	4c\	so-	4g\	so-	4b-\	so-
4F\	-lus	4c\	-lus	4f\	-lus	4a\	-lus
!	!	!	!	!	!	!LO:LB:g=original	!
=64	=64	=64	=64	=64	=64	=64	=64
2.C/	Do-	2.c\	Do-	2.e\	Do-	2.g\	Do-
4C/	-mi-	4c\	-mi-	4e\	-mi-	4g\	-mi-
2C/	-nus,	2c\	-nus	2e\	-nus	2g\	-nus
=65	=65	=65	=65	=65	=65	=65	=65
2C/	tu	2c\	tu	2g\	tu	2ee\	tu
2C/	so-	2c\	so-	4g\	so-	4ee\	so-
.	.	.	.	4b-\	.	4gg\	.
4C/	-lus	4c\	-lus	4a\	-lus	4ff\	-lus
4C/	at-	4c\	al-	4g\	al-	4ee\	al-
!LO:LB:g=original	!	!LO:LB:g=original	!	!	!	!	!
=66	=66	=66	=66	=66	=66	=66	=66
4F\	-tis-	2.F/	-tis-	2.a\	-tis-	2.cc\	-tis-
4C/	.	.	.	.	.	.	.
4AA/	.	.	.	.	.	.	.
4C/	-si-	4F/	-si-	4a\	-si-	4cc\	-si-
2FF/	-mus	2F/	-mus	2a\	-mus	2cc\	-mus
=67	=67	=67	=67	=67	=67	=67	=67
1BB-	Je-	1F	Je-	4b-\	Je-	4dd\	Je-
.	.	.	.	4a\	.	4cc\	.
.	.	.	.	4g\	.	4b-\	.
.	.	.	.	4f\	.	4a\	.
4C/	.	4B-\	.	4e\	.	4g\	.
4AA/	-su	4A\	-su	4f\	-su	4a\	-su
!	!	!	!	!LO:LB:g=original	!	!	!
=68	=68	=68	=68	=68	=68	=68	=68
2BB-/	Chri-	2d\	Chri-	2g\	Chri-	2b-\	Chri-
1C	-ste	1c	.	2f\	.	2a\	.
.	.	.	.	2e\	.	2g\	.
=69	=69	=69	=69	=69	=69	=69	=69
1F	ste,	1c	-ste,	1f	-ste,	1a	-ste,
2C/	Cum	2B-\	Cum	2g\	Cum	2ee\	cum
!	!	!	!	!	!	!LO:LB:g=original	!
=70	=70	=70	=70	=70	=70	=70	=70
4F\	san-	4A\	san-	1a	san-	1cc	san-
4G\	.	4B-\	.	.	.	.	.
4A\	.	4c\	.	.	.	.	.
4G\	.	4B-\	.	.	.	.	.
4A\	.	4c\	.	2a\	-cto	2cc\	-cto
4F\	-cto	4A\	-cto	.	.	.	.
=71	=71	=71	=71	=71	=71	=71	=71
4E\	ſpi-	4G/	ſpi-	2.g\	spi-	2.cc\	ſpi-
4D\	.	4F/	.	.	.	.	.
4C\	-ri-	4E/	-ri-	.	.	.	.
4D\	.	4F/	.	4g\	-ri-	4cc\	-ri-
4E\	-tu	4G/	-tu	4g\	-tu	4cc\	-tu
4D\	in	4E/	in	4g\	in	4cc\	in
!LO:LB:g=original	!	!LO:LB:g=original	!	!	!	!	!
=72	=72	=72	=72	=72	=72	=72	=72
4C\	glo-	2.G/	glo-	2.b-\	glo-	2.ee\	glo-
4E\	.	.	.	.	.	.	.
4G\	.	.	.	.	.	.	.
4E\	.	4G/	-ri-	4b-\	-ri-	4ee\	-ri-
4C\	-ri-	2G/	-a	2b-\	-a	2ee\	-a
4E\	-a	.	.	.	.	.	.
=73	=73	=73	=73	=73	=73	=73	=73
2F\	De-	2A\	De-	2a\	De-	2cc\	De-
2G\	.	2B-\	.	2g\	.	2b-\	.
2A\	-i	2c\	-i	2f\	-i	2a\	-i
=74	=74	=74	=74	=74	=74	=74	=74
1B-	Pa-	1c	Pa-	1g	Pa-	1ee	Pa-
2A\	-tris	2c\	-tris	2f\	-tris	2cc\	-tris
!	!	!	!	!LO:LB:g=original	!	!	!
=75	=75	=75	=75	=75	=75	=75	=75
2B-\	a-	2B-\	a-	2g\	a-	4dd\	a-
.	.	.	.	.	.	4b-\	.
2c\	.	1c	-men	2f\	.	2a\	.
2C/	.	.	.	2e\	.	2g\	.
=76	=76	=76	=76	=76	=76	=76	=76
1F	-men	1c	a-	1f	-men	2a\	-men
.	.	.	.	.	.	2r	.
2C/	a-	2c\	.	2g\	a-	2ee\	a-
=77	=77	=77	=77	=77	=77	=77	=77
1FF	-men.	1c	-men.	1a	-men.	1ff	-men.
2r	.	2r	.	2r	.	2r	.
==	==	==	==	==	==	==	==
*-	*-	*-	*-	*-	*-	*-	*-
!!!system-decoration: [(s1,s2,s3,s4)]
!!!ENC: Anastazja Marusiak
!!!END: 2023-11-6
!!!EED: Marta Chmielewska
!!!EEV: 2023-11-26
